symbols/web/data_array/materialsymbolsoutlined/data_array_wght100gradN25_48px.svg

<svg xmlns="http://www.w3.org/2000/svg" height="48" width="48"><path d="M31.35 37.65V36.55H36.65V11.35H31.35V10.25H37.75V37.65ZM10.35 37.65V10.25H16.75V11.35H11.45V36.55H16.75V37.65Z"/></svg>

<svg xmlns="http://www.w3.org/2000/svg" height="48" width="48"><path d="M31.35 37.65v-1.1h5.3v-25.2h-5.3v-1.1h6.4v27.4Zm-21 0v-27.4h6.4v1.1h-5.3v25.2h5.3v1.1Z"/></svg>
